X: 21623
T: Killavil Postman, The
R: barndance
M: 4/4
K: Gmajor
Bc|d2 g2 g3 e|dedc BAGE|D2 G2 G2 A2|B4 B3 c|
d2 g2 g3 e|dedc BAGc|A2 a2 a2 b2|a4 a2 gf|
g2 g2 g3 e|dedc BAGE|D2 G2 G2 A2|B4 B2 gf|
e2 eB cB A2|dedc BAGE|D2 G2 G2 A2|G4 G2||
ga|b3 f gf e2|b3 f gf e2|b2 b2- b2 c’2|b8|
a2 af gf e2|a2 af gf e2|a2 a2- a2 b2|f8|
b2 bf gf e2|b2 bf gf e2|b2 b2- b2 c’2|b4 g3 a|
b2 b2 a2 a2|g2 g2 f4|a3 g fgag|faea d2||

